Origami/24x24/apps/evnc.svg

<svg width="24" height="24" version="1" xmlns="http://www.w3.org/2000/svg">
 <path d="m3 3.5c-1.1045238 1.104e-4 -1.9998896 0.8954762-2 2v14c1.104e-4 1.104524 0.8954762 1.99989 2 2h1c1.1045238-1.1e-4 1.9998896-0.895476 2-2h12c1.1e-4 1.104524 0.895476 1.99989 2 2h1c1.104524-1.1e-4 1.99989-0.895476 2-2v-14c-1.1e-4 -1.1045238-0.895476-1.9998896-2-2h-1c-1.104524 1.104e-4 -1.99989 0.8954762-2 2h-12c-1.104e-4 -1.1045238-0.8954762-1.9998896-2-2z" style="opacity:.2"/>
 <path d="m3 3c-1.1045238 1.104e-4 -1.9998896 0.8954762-2 2v14c1.104e-4 1.104524 0.8954762 1.99989 2 2h1c1.1045238-1.1e-4 1.9998896-0.895476 2-2h12c1.1e-4 1.104524 0.895476 1.99989 2 2h1c1.104524-1.1e-4 1.99989-0.895476 2-2v-14c-1.1e-4 -1.1045238-0.895476-1.9998896-2-2h-1c-1.104524 1.104e-4 -1.99989 0.8954762-2 2h-12c-1.104e-4 -1.1045238-0.8954762-1.9998896-2-2z" style="fill:#37a0f2"/>
 <path d="m3 5.5v14h1v-14zm17 0v14h1v-14zm-15 2v10h1v-10zm2 0v10h10v-10zm11 0v10h1v-10zm-10 1h8v8h-8z" style="opacity:.2"/>
 <path d="m3 5v14h1v-14zm17 0v14h1v-14zm-15 2v10h1v-10zm2 0v10h10v-10zm11 0v10h1v-10zm-10 1h8v8h-8z" style="fill:#ffffff"/>
 <path d="m3 3c-1.1045238 1.104e-4 -1.9998896 0.8954762-2 2v0.5c1.104e-4 -1.1045238 0.8954762-1.9998896 2-2h1c1.1045238 1.104e-4 1.9998896 0.8954762 2 2h12c1.1e-4 -1.1045238 0.895476-1.9998896 2-2h1c1.104524 1.104e-4 1.99989 0.8954762 2 2v-0.5c-1.1e-4 -1.1045238-0.895476-1.9998896-2-2h-1c-1.104524 1.104e-4 -1.99989 0.8954762-2 2h-12c-1.104e-4 -1.1045238-0.8954762-1.9998896-2-2h-1z" style="fill:#ffffff;opacity:.2"/>
</svg>

<svg xmlns="http://www.w3.org/2000/svg" width="24" height="24" version="1">
 <path style="opacity:0.2" d="m 3,3.5 c -1.1045238,1.104e-4 -1.9998896,0.8954762 -2,2 v 14 c 1.104e-4,1.104524 0.8954762,1.99989 2,2 h 1 c 1.1045238,-1.1e-4 1.9998896,-0.895476 2,-2 h 12 c 1.1e-4,1.104524 0.895476,1.99989 2,2 h 1 c 1.104524,-1.1e-4 1.99989,-0.895476 2,-2 v -14 c -1.1e-4,-1.1045238 -0.895476,-1.9998896 -2,-2 h -1 c -1.104524,1.104e-4 -1.99989,0.8954762 -2,2 H 6 C 5.9998896,4.3954762 5.1045238,3.5001104 4,3.5 Z"/>
 <path style="fill:#37a0f2" d="M 3,3 C 1.8954762,3.0001104 1.0001104,3.8954762 1,5 v 14 c 1.104e-4,1.104524 0.8954762,1.99989 2,2 h 1 c 1.1045238,-1.1e-4 1.9998896,-0.895476 2,-2 h 12 c 1.1e-4,1.104524 0.895476,1.99989 2,2 h 1 c 1.104524,-1.1e-4 1.99989,-0.895476 2,-2 V 5 C 22.99989,3.8954762 22.104524,3.0001104 21,3 h -1 c -1.104524,1.104e-4 -1.99989,0.8954762 -2,2 H 6 C 5.9998896,3.8954762 5.1045238,3.0001104 4,3 Z"/>
 <path style="opacity:0.2" d="m 3,5.5 v 14 h 1 v -14 z m 17,0 v 14 h 1 v -14 z m -15,2 v 10 h 1 v -10 z m 2,0 v 10 h 10 v -10 z m 11,0 v 10 h 1 v -10 z m -10,1 h 8 v 8 H 8 Z"/>
 <path style="fill:#ffffff" d="M 3,5 V 19 H 4 V 5 Z m 17,0 v 14 h 1 V 5 Z M 5,7 V 17 H 6 V 7 Z M 7,7 V 17 H 17 V 7 Z m 11,0 v 10 h 1 V 7 Z M 8,8 h 8 v 8 H 8 Z"/>
 <path style="opacity:0.2;fill:#ffffff" d="M 3 3 C 1.8954762 3.0001104 1.0001104 3.8954762 1 5 L 1 5.5 C 1.0001104 4.3954762 1.8954762 3.5001104 3 3.5 L 4 3.5 C 5.1045238 3.5001104 5.9998896 4.3954762 6 5.5 L 18 5.5 C 18.00011 4.3954762 18.895476 3.5001104 20 3.5 L 21 3.5 C 22.104524 3.5001104 22.99989 4.3954762 23 5.5 L 23 5 C 22.99989 3.8954762 22.104524 3.0001104 21 3 L 20 3 C 18.895476 3.0001104 18.00011 3.8954762 18 5 L 6 5 C 5.9998896 3.8954762 5.1045238 3.0001104 4 3 L 3 3 z"/>
</svg>
